X:52
T:Vous ne voulez pas m'aimer
C:trad.
A:Bas-Maine
O:France
Z:S. Piron
M:2/4
L:1/8
Q:1/4=90
K:F
AAGG|ccFF|G>BAG|F4|AAGG|ccFF|G>BAG|F2 zG|GFGc|
cB/2A/2GG|GFGc|cB/2A/2HG3/2C/2|cccA|c2AA|GFGA|FC/2C/2FA|GFGA|F2Hf2||
W:
W:Vous ne voulez pas m'aimer,
W:Eh bien ne m'aimez pas
W:J'en aurai bien du regret
W:Mais je n'en mourrai pas !
W:Mon coeur n'est pas pour vous
W:Voyez-vous
W:Mon coeur n'est pas pour vous
W:Voyez-vous
W:Il y en a un autre
W:Que j'aime mieux que vous
W:Voyez-vous
W:Que j'aime mieux que vous, Hou !
W:
W:Ah! si vous le connaissiez
W:Vous en seriez jaloux !
W:Il est jeune et habill
W:De soie et de velours.
W:Et il veut m'pouser
W:Voyez-vous
W:Et il veut m'pouser
W:Voyez-vous
W:Je serai plus heureuse
W:Avec lui qu'avec vous,
W:Voyez-vous
W:Avec lui qu'avec vous, Hou!
